templates/construction-template/img/linkedin-with-circle.svg

<!-- Generated by IcoMoon.io -->
<svg version="1.1" xmlns="http://www.w3.org/2000/svg" width="20" height="20" viewBox="0 0 20 20">
<title>linkedin-with-circle</title>
<path fill="#e1e1e1" d="M10 0.4c-5.302 0-9.6 4.298-9.6 9.6s4.298 9.6 9.6 9.6 9.6-4.298 9.6-9.6-4.298-9.6-9.6-9.6zM7.65 13.979h-1.944v-6.256h1.944v6.256zM6.666 6.955c-0.614 0-1.011-0.435-1.011-0.973 0-0.549 0.409-0.971 1.036-0.971s1.011 0.422 1.023 0.971c0 0.538-0.396 0.973-1.048 0.973zM14.75 13.979h-1.944v-3.467c0-0.807-0.282-1.355-0.985-1.355-0.537 0-0.856 0.371-0.997 0.728-0.052 0.127-0.065 0.307-0.065 0.486v3.607h-1.945v-4.26c0-0.781-0.025-1.434-0.051-1.996h1.689l0.089 0.869h0.039c0.256-0.408 0.883-1.010 1.932-1.010 1.279 0 2.238 0.857 2.238 2.699v3.699z"></path>
</svg>

<svg xmlns="http://www.w3.org/2000/svg" width="20" height="20"><path fill="#e1e1e1" d="M10 .4C4.698.4.4 4.698.4 10s4.298 9.6 9.6 9.6 9.6-4.298 9.6-9.6S15.302.4 10 .4zM7.65 13.979H5.706V7.723H7.65v6.256zm-.984-7.024c-.614 0-1.011-.435-1.011-.973 0-.549.409-.971 1.036-.971s1.011.422 1.023.971c0 .538-.396.973-1.048.973zm8.084 7.024h-1.944v-3.467c0-.807-.282-1.355-.985-1.355-.537 0-.856.371-.997.728-.052.127-.065.307-.065.486v3.607H8.814v-4.26c0-.781-.025-1.434-.051-1.996h1.689l.089.869h.039c.256-.408.883-1.01 1.932-1.01 1.279 0 2.238.857 2.238 2.699v3.699z"/></svg>
